svg/emoji_u1f935.svg

<?xml version="1.0" encoding="UTF-8" standalone="no"?>
<!DOCTYPE svg PUBLIC "-//W3C//DTD SVG 1.1//EN" "http://www.w3.org/Graphics/SVG/1.1/DTD/svg11.dtd">
<svg width="100%" height="100%" viewBox="0 0 128 128" version="1.1" xmlns="http://www.w3.org/2000/svg" xmlns:xlink="http://www.w3.org/1999/xlink" xml:space="preserve" xmlns:serif="http://www.serif.com/" style="fill-rule:evenodd;clip-rule:evenodd;stroke-linejoin:round;stroke-miterlimit:2;">
    <g>
        <clipPath id="_clip1">
            <rect x="0" y="0.21" width="128" height="128"/>
        </clipPath>
        <g clip-path="url(#_clip1)">
            <path d="M80.74,99.07C75.04,97.99 52.97,97.99 47.27,99.07C29.22,102.5 16,110.46 16,127.44L16,148.34L64,148.35L112,148.34L112,127.44C112,110.46 98.78,102.5 80.74,99.07Z" style="fill-rule:nonzero;"/>
            <path d="M63.52,98.26L79.54,100.48L79.54,135.38L63.52,135.38L63.52,98.26Z" style="fill:white;fill-rule:nonzero;"/>
            <path d="M74.04,100.34C74.04,100.34 78.46,103.58 78.62,110.5C78.8,118.05 72.46,147.04 63.04,163.61L77.72,161.39L93.7,122.84L86.05,117.8L92.52,112.81C92.52,112.81 86.3,101.81 77.56,97.51C73.31,96.75 65.19,96.41 63.53,96.46L63.51,98.26L74.04,100.34Z" style="fill:rgb(68,68,68);fill-rule:nonzero;"/>
            <path d="M63.52,98.26L47.5,100.48L47.5,135.38L63.52,135.38L63.52,98.26Z" style="fill:white;fill-rule:nonzero;"/>
            <path d="M53,100.34C53,100.34 48.58,103.58 48.42,110.5C48.24,118.05 54.58,147.04 64,163.61L49.32,161.39L33.34,122.84L40.99,117.8L34.52,112.81C34.52,112.81 40.74,101.81 49.48,97.51C53.73,96.75 61.85,96.41 63.51,96.46L63.53,98.26L53,100.34Z" style="fill:rgb(68,68,68);fill-rule:nonzero;"/>
            <path d="M63.5,111.35C57.42,111.35 53,106.42 53,100.34L53,91L74,91L74,100.34C74,106.42 69.58,111.35 63.5,111.35Z" style="fill:rgb(227,151,0);fill-rule:nonzero;"/>
            <g>
                <path d="M97.56,53.12C97.56,53.12 103.66,54.18 103.66,60.74C103.66,66.53 99.21,68.82 94.76,68.82L94.76,53.12L97.56,53.12ZM31.05,53.12C31.05,53.12 24.95,54.18 24.95,60.74C24.95,66.53 29.4,68.82 33.85,68.82L33.85,53.12L31.05,53.12Z" style="fill:rgb(227,148,0);fill-rule:nonzero;"/>
            </g>
            <path d="M64.31,10.12C38.03,10.12 31.15,30.49 31.15,59.11C31.15,88.79 50.22,96.46 64.31,96.46C78.19,96.46 97.47,89.01 97.47,59.11C97.46,30.49 90.59,10.12 64.31,10.12Z" style="fill:rgb(250,192,27);fill-rule:nonzero;"/>
            <path d="M53.39,61.77C53.39,64.72 51.41,67.12 48.96,67.12C46.51,67.12 44.52,64.72 44.52,61.77C44.52,58.81 46.51,56.41 48.96,56.41C51.41,56.41 53.39,58.8 53.39,61.77M75.22,61.77C75.22,64.72 77.2,67.12 79.66,67.12C82.1,67.12 84.09,64.72 84.09,61.77C84.09,58.81 82.1,56.41 79.66,56.41C77.2,56.41 75.22,58.8 75.22,61.77" style="fill:rgb(68,68,68);fill-rule:nonzero;"/>
            <path d="M73.9,79.84L54.7,79.84C53.6,79.84 53.13,80.58 53.85,81.69C54.87,83.24 58.65,86.22 64.29,86.22C69.93,86.22 73.71,83.24 74.73,81.69C75.48,80.58 75,79.84 73.9,79.84Z" style="fill:rgb(81,63,53);fill-rule:nonzero;"/>
            <path d="M68.94,71.69C67.31,72.15 65.61,72.38 64.3,72.38C62.99,72.38 61.3,72.15 59.66,71.69C58.96,71.49 58.69,72.15 58.94,72.59C59.46,73.5 61.54,75.34 64.3,75.34C67.05,75.34 69.14,73.5 69.66,72.59C69.91,72.15 69.64,71.49 68.94,71.69Z" style="fill:rgb(227,148,0);fill-rule:nonzero;"/>
            <g transform="matrix(2.04512,0,0,2.04512,-152.239,-42.4212)">
                <path d="M94.066,27.778C96.675,25.707 100.329,23.961 105.476,23.859C105.476,23.859 105.721,23.849 105.834,23.849C105.936,23.849 106.191,23.859 106.191,23.859C109.911,23.964 112.963,24.918 115.402,26.243C116.216,26.5 116.997,26.834 117.673,27.221C118.084,27.456 118.457,27.717 118.827,28.012C118.903,28.073 119.184,28.228 119.209,28.321C119.238,28.425 118.994,28.305 118.886,28.296C118.731,28.283 118.574,28.272 118.419,28.252L118.368,28.246C118.971,28.744 119.515,29.258 120,29.772C120.271,29.935 120.539,30.114 120.804,30.314C121.132,30.562 121.401,30.867 121.659,31.184C121.748,31.294 121.84,31.401 121.917,31.52C121.966,31.595 122.148,31.735 122.06,31.745C121.896,31.764 121.698,31.677 121.52,31.62C122.01,32.31 122.39,32.964 122.665,33.536C123.633,35.551 124.199,37.503 124.508,39.288C125.092,40.069 125.567,40.92 125.654,41.756C125.668,41.885 125.453,41.592 125.348,41.517C125.153,41.377 124.947,41.255 124.746,41.124C124.854,42.375 124.844,43.507 124.778,44.475C125.148,44.925 125.697,45.513 125.762,46.106C125.767,46.16 125.663,46.061 125.615,46.037C125.48,45.97 125.357,45.907 125.234,45.818C125.048,45.683 124.867,45.537 124.697,45.38C124.515,47.006 124.206,47.978 124.206,47.978C124.206,47.978 123.992,47.754 123.584,47.437C123.145,47.1 122.665,46.906 122.665,46.906C123.306,49.8 123.851,54.429 122.665,56.431C120.735,54.812 118.108,49.269 117.391,39.774C116.735,40.348 116.068,40.864 115.492,41.108C115.534,41.282 115.575,41.456 115.63,41.619C115.693,41.806 115.767,41.99 115.858,42.164C115.907,42.256 116.121,42.448 116.018,42.432C115.768,42.394 115.388,42.01 115.166,41.873C114.718,41.595 114.247,41.364 113.749,41.208C113.257,41.177 112.766,41.13 112.283,41.047C112.464,41.653 112.611,42.271 112.664,42.901C112.683,43.125 112.706,43.776 112.534,43.933C112.534,43.933 112.37,43.713 112.357,43.694C112.245,43.534 112.131,43.375 112.017,43.217C111.69,42.765 111.364,42.316 110.987,41.903C110.287,41.135 109.563,40.41 108.76,39.79C107.985,39.438 107.209,39.088 106.389,38.836C105.299,38.5 104.178,38.454 103.065,38.251C102.871,38.215 102.678,38.17 102.487,38.118C102.375,38.122 102.263,38.127 102.152,38.133C102.787,39.669 103,41.371 102.51,42.961C102.292,43.667 101.971,44.34 101.551,44.947C101.52,44.992 101.219,45.432 101.139,45.399C100.91,45.303 100.565,44.561 100.421,44.352C99.882,43.567 99.309,42.759 98.629,42.086C97.378,40.845 95.87,40.03 94.322,39.278C94.417,45.039 92.655,52.822 89.002,56.431C88.06,54.319 88.205,49.505 89.002,46.906C89.002,46.906 88.512,47.1 88.084,47.437C87.686,47.754 87.461,47.978 87.461,47.978C87.461,47.978 86.769,45.388 86.759,42.115C86.575,42.277 86.243,42.692 86.034,42.725C85.973,42.735 86.045,42.601 86.052,42.539C86.069,42.39 86.093,42.241 86.117,42.093C86.173,41.748 86.247,41.406 86.344,41.07C86.474,40.618 86.659,40.195 86.876,39.788C87.097,37.721 87.669,35.566 88.878,33.721C88.632,33.702 88.393,33.677 88.167,33.65C87.877,33.614 87.587,33.553 87.313,33.452C87.277,33.439 87.088,33.396 87.076,33.358C87.076,33.358 87.599,33.105 87.679,33.062C88.34,32.711 88.992,32.314 89.634,31.927C89.969,31.724 90.31,31.497 90.647,31.254C91.238,30.503 91.939,29.698 92.772,28.904C92.544,28.723 92.341,28.501 92.171,28.224C91.979,27.91 91.799,27.548 91.755,27.177C91.74,27.051 91.827,26.729 92.041,26.77C92.608,26.879 92.864,27.699 93.479,27.838C93.635,27.873 93.855,27.833 94.066,27.778Z" style="fill:rgb(109,76,65);fill-rule:nonzero;"/>
            </g>
        </g>
    </g>
    <g>
        <path d="M65.37,109.34C66.92,108.27 68.38,107.5 69.87,106.55C71.06,105.79 73.07,104.38 74.96,105.1C76.56,105.71 75.99,107.9 75.99,110.76C75.99,114.12 76.56,116.07 75.29,116.63C73.58,117.39 71.33,116.05 69.45,115.23C68.38,114.77 65.32,113.37 64.8,112.56C64.28,111.75 64.31,109.87 65.37,109.34Z" style="fill-rule:nonzero;"/>
        <path d="M73.28,109.05C73.31,109.29 71.62,109.83 69.49,110.27C67.36,110.71 65.61,110.87 65.58,110.63C65.55,110.39 67.24,109.85 69.37,109.41C71.49,108.98 73.25,108.81 73.28,109.05ZM73.31,113.04C73.29,113.28 71.53,113.22 69.39,112.91C67.25,112.6 65.53,112.16 65.55,111.92C65.57,111.68 67.33,111.74 69.47,112.05C71.61,112.36 73.33,112.8 73.31,113.04Z" style="fill:rgb(68,68,68);fill-rule:nonzero;"/>
        <g>
            <path d="M61.63,109.34C60.08,108.27 58.62,107.5 57.13,106.55C55.94,105.79 53.93,104.38 52.04,105.1C50.44,105.71 51.01,107.9 51.01,110.76C51.01,114.12 50.44,116.07 51.71,116.63C53.42,117.39 55.67,116.05 57.55,115.23C58.62,114.77 61.68,113.37 62.2,112.56C62.72,111.75 62.69,109.87 61.63,109.34Z" style="fill-rule:nonzero;"/>
            <path d="M53.72,109.05C53.69,109.29 55.38,109.83 57.51,110.27C59.64,110.71 61.39,110.87 61.42,110.63C61.45,110.39 59.76,109.85 57.63,109.41C55.51,108.98 53.75,108.81 53.72,109.05ZM53.69,113.04C53.71,113.28 55.47,113.22 57.61,112.91C59.75,112.6 61.47,112.16 61.45,111.92C61.43,111.68 59.67,111.74 57.53,112.05C55.39,112.36 53.67,112.8 53.69,113.04Z" style="fill:rgb(68,68,68);fill-rule:nonzero;"/>
        </g>
        <path d="M66.92,111.38C66.92,113.33 65.39,114.45 63.5,114.45C61.61,114.45 60.08,113.33 60.08,111.38C60.08,109.43 60.93,107.86 63.5,107.86C65.96,107.85 66.92,109.43 66.92,111.38Z" style="fill-rule:nonzero;"/>
    </g>
    <circle cx="63.5" cy="118.84" r="1.59" style="fill:rgb(68,68,68);"/>
    <circle cx="63.5" cy="124.3" r="1.59" style="fill:rgb(68,68,68);"/>
</svg>

<svg width="128" height="128" xmlns="http://www.w3.org/2000/svg" xmlns:xlink="http://www.w3.org/1999/xlink"><defs><path id="a" d="M0 .21h128v128H0z"/></defs><clipPath id="b"><use xlink:href="#a" overflow="visible"/></clipPath><g clip-path="url(#b)"><path d="M80.74 99.07c-5.7-1.08-27.77-1.08-33.47 0C29.22 102.5 16 110.46 16 127.44v20.9l48 .01 48-.01v-20.9c0-16.98-13.22-24.94-31.26-28.37z"/><path fill="#fff" d="M63.52 98.26l16.02 2.22v34.9H63.52z"/><path d="M74.04 100.34s4.42 3.24 4.58 10.16c.18 7.55-6.16 36.54-15.58 53.11l14.68-2.22 15.98-38.55-7.65-5.04 6.47-4.99s-6.22-11-14.96-15.3c-4.25-.76-12.37-1.1-14.03-1.05l-.02 1.8 10.53 2.08z" fill="#444"/><path fill="#fff" d="M63.52 98.26l-16.02 2.22v34.9h16.02z"/><path d="M53 100.34s-4.42 3.24-4.58 10.16c-.18 7.55 6.16 36.54 15.58 53.11l-14.68-2.22-15.98-38.55 7.65-5.04-6.47-4.99s6.22-11 14.96-15.3c4.25-.76 12.37-1.1 14.03-1.05l.02 1.8L53 100.34z" fill="#444"/><path d="M63.5 111.35c-6.08 0-10.5-4.93-10.5-11.01V91h21v9.34c0 6.08-4.42 11.01-10.5 11.01z" fill="#e39700"/><g fill="#e39400"><path d="M97.56 53.12s6.1 1.06 6.1 7.62c0 5.79-4.45 8.08-8.9 8.08v-15.7h2.8zM31.05 53.12s-6.1 1.06-6.1 7.62c0 5.79 4.45 8.08 8.9 8.08v-15.7h-2.8z"/></g><path d="M64.31 10.12c-26.28 0-33.16 20.37-33.16 48.99 0 29.68 19.07 37.35 33.16 37.35 13.88 0 33.16-7.45 33.16-37.35-.01-28.62-6.88-48.99-33.16-48.99z" fill="#fac01b"/><path d="M53.39 61.77c0 2.95-1.98 5.35-4.43 5.35-2.45 0-4.44-2.4-4.44-5.35 0-2.96 1.99-5.36 4.44-5.36s4.43 2.39 4.43 5.36M75.22 61.77c0 2.95 1.98 5.35 4.44 5.35 2.44 0 4.43-2.4 4.43-5.35 0-2.96-1.99-5.36-4.43-5.36-2.46 0-4.44 2.39-4.44 5.36" fill="#444"/><path d="M73.9 79.84h-9.6-9.6c-1.1 0-1.57.74-.85 1.85 1.02 1.55 4.8 4.53 10.44 4.53s9.42-2.98 10.44-4.53c.75-1.11.27-1.85-.83-1.85z" fill="#513f35"/><path d="M68.94 71.69c-1.63.46-3.33.69-4.64.69-1.31 0-3-.23-4.64-.69-.7-.2-.97.46-.72.9.52.91 2.6 2.75 5.36 2.75 2.75 0 4.84-1.84 5.36-2.75.25-.44-.02-1.1-.72-.9z" fill="#e39400"/><path d="M65.1 6.38s-.51-.02-.73-.01c-.22 0-.73.01-.73.01-28.37.54-36.92 17.61-36.92 29.44 0 11.5.01 19.94.01 19.94s.45-.47 1.28-1.12c.89-.69 1.87-1.08 1.87-1.08l1.43 9.61 9.45-19.74c.06-.12.19-.2.32-.18l5.6.62c5.63.63 11.28.93 16.94.94v.01c.24 0 .49-.01.73-.01s.49.01.73.01v-.01c5.65-.02 11.31-.32 16.94-.94l5.6-.62c.13-.01.26.06.32.18l9.45 19.74 1.43-9.61s.98.39 1.87 1.08c.83.65 1.28 1.12 1.28 1.12s.01-8.45.01-19.94c.03-11.83-8.52-28.9-36.88-29.44z" fill="#6d4c41"/></g><g clip-path="url(#b)"><path d="M65.37 109.34c1.55-1.07 3.01-1.84 4.5-2.79 1.19-.76 3.2-2.17 5.09-1.45 1.6.61 1.03 2.8 1.03 5.66 0 3.36.57 5.31-.7 5.87-1.71.76-3.96-.58-5.84-1.4-1.07-.46-4.13-1.86-4.65-2.67s-.49-2.69.57-3.22z"/><path d="M73.28 109.05c.03.24-1.66.78-3.79 1.22-2.13.44-3.88.6-3.91.36s1.66-.78 3.79-1.22c2.12-.43 3.88-.6 3.91-.36zM73.31 113.04c-.02.24-1.78.18-3.92-.13-2.14-.31-3.86-.75-3.84-.99.02-.24 1.78-.18 3.92.13s3.86.75 3.84.99z" fill="#444"/><g><path d="M61.63 109.34c-1.55-1.07-3.01-1.84-4.5-2.79-1.19-.76-3.2-2.17-5.09-1.45-1.6.61-1.03 2.8-1.03 5.66 0 3.36-.57 5.31.7 5.87 1.71.76 3.96-.58 5.84-1.4 1.07-.46 4.13-1.86 4.65-2.67s.49-2.69-.57-3.22z"/><path d="M53.72 109.05c-.03.24 1.66.78 3.79 1.22 2.13.44 3.88.6 3.91.36.03-.24-1.66-.78-3.79-1.22-2.12-.43-3.88-.6-3.91-.36zM53.69 113.04c.02.24 1.78.18 3.92-.13 2.14-.31 3.86-.75 3.84-.99s-1.78-.18-3.92.13c-2.14.31-3.86.75-3.84.99z" fill="#444"/></g><path d="M66.92 111.38c0 1.95-1.53 3.07-3.42 3.07s-3.42-1.12-3.42-3.07.85-3.52 3.42-3.52c2.46-.01 3.42 1.57 3.42 3.52z"/></g><circle cx="63.5" cy="118.84" r="1.59" fill="#444"/><circle cx="63.5" cy="124.3" r="1.59" fill="#444"/></svg>
